icons/1_Primary/Obsidian Entertainment.svg

<svg width="1024" height="1024" fill="none" xmlns="http://www.w3.org/2000/svg"><g clip-path="url(#a)"><path d="M512 1024c282.77 0 512-229.23 512-512S794.77 0 512 0 0 229.23 0 512s229.23 512 512 512Z" fill="#56595B"/><path d="M744 397.5c-11.1-26.2-31.4-38.5-50.4-56.4-9.5-12.1-18.7-24.2-28.2-36.3-43.9-30.6-110.4-47.7-183.3-48.4-17.9 13.9-72.3 21.8-96.7 32.2-48.4 20.8-74.1 58-100.7 100.7-2.8 4.6-10.3 10.9-12.1 16.1-1.4 12.7-2.6 25.6-4 38.3-3 12.7-10.3 29.2-12.1 40.3-2 12.7 3.4 40.1 6 52.4.6 12.1 1.4 24.2 2 36.3 13.5 50.8 39.7 84.6 66.5 120.9 2.6 3.6 2.8 9.3 6 12.1 12.9 12.1 35.1 14.9 50.4 24.2 13.9 8.5 29.2 22 44.3 28.2 32 13.5 130.1 11.3 167.2 0 12.1-3.6 33.2-10.7 44.3-18.1 12.7-8.5 22-25 34.2-34.2 84.5-63.7 117.2-188.2 66.6-308.3Zm-52.4 143.1v30.2c-3 7.5-13.5 15.5-18.1 22.2-8.9 12.7-13.5 31.2-24.2 42.3-21.6 22.2-58.6 36.3-90.7 48.4-11.3 4.2-33.2 19.3-48.4 16.1-9.1-2-19.7-11.5-28.2-14.1h-42.3c-15.1-5-31.4-25.4-42.3-36.3-15.3-15.3-39.3-31.6-48.4-52.4-24.4-56.2-9.5-169.8 22.2-211.5 10.9-14.3 72.3-47.1 92.7-54.4 9.7-3.4 27.8 1 36.3-4 33.4 0 62.7.2 86.6 10.1 23.4 9.5 66.3 59 84.6 78.6 8.5 11.1 4.4 32.2 10.1 46.3 3.6 9.3 13.3 19.3 16.1 28.2 4.5 13.6-3.4 38.6-6 50.3Z" fill="#fff"/></g><defs><clipPath id="a"><path fill="#fff" d="M0 0h1024v1024H0z"/></clipPath></defs></svg>

<svg width="1024" height="1024" viewBox="0 0 1024 1024" fill="none" xmlns="http://www.w3.org/2000/svg">
<g clip-path="url(#clip0_2_2994)">
<path d="M512 1024C794.77 1024 1024 794.77 1024 512C1024 229.23 794.77 0 512 0C229.23 0 0 229.23 0 512C0 794.77 229.23 1024 512 1024Z" fill="#56595B"/>
<path d="M744 397.5C732.9 371.3 712.6 359 693.6 341.1C684.1 329 674.9 316.9 665.4 304.8C621.5 274.2 555 257.1 482.1 256.4C464.2 270.3 409.8 278.2 385.4 288.6C337 309.4 311.3 346.6 284.7 389.3C281.9 393.9 274.4 400.2 272.6 405.4C271.2 418.1 270 431 268.6 443.7C265.6 456.4 258.3 472.9 256.5 484C254.5 496.7 259.9 524.1 262.5 536.4C263.1 548.5 263.9 560.6 264.5 572.7C278 623.5 304.2 657.3 331 693.6C333.6 697.2 333.8 702.9 337 705.7C349.9 717.8 372.1 720.6 387.4 729.9C401.3 738.4 416.6 751.9 431.7 758.1C463.7 771.6 561.8 769.4 598.9 758.1C611 754.5 632.1 747.4 643.2 740C655.9 731.5 665.2 715 677.4 705.8C761.9 642.1 794.6 517.6 744 397.5ZM691.6 540.6V570.8C688.6 578.3 678.1 586.3 673.5 593C664.6 605.7 660 624.2 649.3 635.3C627.7 657.5 590.7 671.6 558.6 683.7C547.3 687.9 525.4 703 510.2 699.8C501.1 697.8 490.5 688.3 482 685.7H439.7C424.6 680.7 408.3 660.3 397.4 649.4C382.1 634.1 358.1 617.8 349 597C324.6 540.8 339.5 427.2 371.2 385.5C382.1 371.2 443.5 338.4 463.9 331.1C473.6 327.7 491.7 332.1 500.2 327.1C533.6 327.1 562.9 327.3 586.8 337.2C610.2 346.7 653.1 396.2 671.4 415.8C679.9 426.9 675.8 448 681.5 462.1C685.1 471.4 694.8 481.4 697.6 490.3C702.1 503.9 694.2 528.9 691.6 540.6Z" fill="white"/>
</g>
<defs>
<clipPath id="clip0_2_2994">
<rect width="1024" height="1024" fill="white"/>
</clipPath>
</defs>
</svg>
